images/cart.svg

<svg width="22" height="22" viewBox="0 0 22 22" fill="none" xmlns="http://www.w3.org/2000/svg">
<path d="M16.7895 16.7895C17.3478 16.7895 17.8833 17.0113 18.2781 17.4061C18.6729 17.8009 18.8947 18.3364 18.8947 18.8947C18.8947 19.4531 18.6729 19.9886 18.2781 20.3834C17.8833 20.7782 17.3478 21 16.7895 21C16.2311 21 15.6956 20.7782 15.3008 20.3834C14.906 19.9886 14.6842 19.4531 14.6842 18.8947C14.6842 18.3364 14.906 17.8009 15.3008 17.4061C15.6956 17.0113 16.2311 16.7895 16.7895 16.7895ZM16.7895 17.8421C16.5103 17.8421 16.2426 17.953 16.0452 18.1504C15.8477 18.3478 15.7368 18.6156 15.7368 18.8947C15.7368 19.1739 15.8477 19.4417 16.0452 19.6391C16.2426 19.8365 16.5103 19.9474 16.7895 19.9474C17.0686 19.9474 17.3364 19.8365 17.5338 19.6391C17.7312 19.4417 17.8421 19.1739 17.8421 18.8947C17.8421 18.6156 17.7312 18.3478 17.5338 18.1504C17.3364 17.953 17.0686 17.8421 16.7895 17.8421ZM7.31579 16.7895C7.87414 16.7895 8.40962 17.0113 8.80444 17.4061C9.19925 17.8009 9.42105 18.3364 9.42105 18.8947C9.42105 19.4531 9.19925 19.9886 8.80444 20.3834C8.40962 20.7782 7.87414 21 7.31579 21C6.75744 21 6.22196 20.7782 5.82714 20.3834C5.43233 19.9886 5.21053 19.4531 5.21053 18.8947C5.21053 18.3364 5.43233 17.8009 5.82714 17.4061C6.22196 17.0113 6.75744 16.7895 7.31579 16.7895ZM7.31579 17.8421C7.03661 17.8421 6.76887 17.953 6.57147 18.1504C6.37406 18.3478 6.26316 18.6156 6.26316 18.8947C6.26316 19.1739 6.37406 19.4417 6.57147 19.6391C6.76887 19.8365 7.03661 19.9474 7.31579 19.9474C7.59496 19.9474 7.86271 19.8365 8.06011 19.6391C8.25752 19.4417 8.36842 19.1739 8.36842 18.8947C8.36842 18.6156 8.25752 18.3478 8.06011 18.1504C7.86271 17.953 7.59496 17.8421 7.31579 17.8421ZM18.8947 4.15789H4.44211L7.12632 10.4737H15.7368C16.0842 10.4737 16.3895 10.3053 16.5789 10.0526L19.7368 5.84211C19.8737 5.66316 19.9474 5.44211 19.9474 5.21053C19.9474 4.93135 19.8365 4.66361 19.6391 4.4662C19.4417 4.2688 19.1739 4.15789 18.8947 4.15789ZM15.7368 11.5263H7.17895L6.36842 13.1684L6.26316 13.6316C6.26316 13.9108 6.37406 14.1785 6.57147 14.3759C6.76887 14.5733 7.03661 14.6842 7.31579 14.6842H18.8947V15.7368H7.31579C6.75744 15.7368 6.22196 15.515 5.82714 15.1202C5.43233 14.7254 5.21053 14.1899 5.21053 13.6316C5.21021 13.2744 5.30077 12.923 5.47368 12.6105L6.23158 11.0632L2.41053 2.05263H1V1H3.10526L4 3.10526H18.8947C19.4531 3.10526 19.9886 3.32707 20.3834 3.72188C20.7782 4.11669 21 4.65218 21 5.21053C21 5.73684 20.8211 6.17895 20.5263 6.53684L17.4632 10.6316C17.0842 11.1684 16.4526 11.5263 15.7368 11.5263Z" fill="#333333" stroke="#333333" stroke-width="0.4"/>
</svg>

<svg width="22" height="22" viewBox="0 0 22 22" fill="none" xmlns="http://www.w3.org/2000/svg"><path d="M16.79 16.79a2.105 2.105 0 1 1 0 4.21 2.105 2.105 0 0 1 0-4.21Zm0 1.052a1.053 1.053 0 1 0 0 2.105 1.053 1.053 0 0 0 0-2.105ZM7.316 16.79a2.105 2.105 0 1 1 0 4.21 2.105 2.105 0 0 1 0-4.21Zm0 1.052a1.053 1.053 0 1 0 0 2.105 1.053 1.053 0 0 0 0-2.105ZM18.895 4.158H4.442l2.684 6.316h8.61c.348 0 .654-.169.843-.421l3.158-4.21a1.053 1.053 0 0 0-.842-1.684Zm-3.158 7.368H7.179l-.81 1.642-.106.464a1.053 1.053 0 0 0 1.053 1.052h11.579v1.053H7.315a2.105 2.105 0 0 1-1.841-3.126l.758-1.548-3.821-9.01H1V1h2.105L4 3.105h14.895A2.105 2.105 0 0 1 21 5.211c0 .526-.179.968-.474 1.326l-3.063 4.095a2.11 2.11 0 0 1-1.726.894Z" fill="#fff" stroke="#fff" stroke-width=".4"/></svg>
